teeny/outline/edit-circle.svg

<svg width="15" height="15" viewBox="0 0 15 15" fill="none" xmlns="http://www.w3.org/2000/svg">
<path d="M4.5 8.5L4.14645 8.14645L4 8.29289V8.5H4.5ZM8.5 4.5L8.85355 4.14645C8.65829 3.95118 8.34171 3.95118 8.14645 4.14645L8.5 4.5ZM10.5 6.5L10.8536 6.85355C11.0488 6.65829 11.0488 6.34171 10.8536 6.14645L10.5 6.5ZM6.5 10.5V11H6.70711L6.85355 10.8536L6.5 10.5ZM4.5 10.5H4C4 10.7761 4.22386 11 4.5 11V10.5ZM7.5 14C3.91015 14 1 11.0899 1 7.5H0C0 11.6421 3.35786 15 7.5 15V14ZM14 7.5C14 11.0899 11.0899 14 7.5 14V15C11.6421 15 15 11.6421 15 7.5H14ZM7.5 1C11.0899 1 14 3.91015 14 7.5H15C15 3.35786 11.6421 0 7.5 0V1ZM7.5 0C3.35786 0 0 3.35786 0 7.5H1C1 3.91015 3.91015 1 7.5 1V0ZM4.85355 8.85355L8.85355 4.85355L8.14645 4.14645L4.14645 8.14645L4.85355 8.85355ZM8.14645 4.85355L10.1464 6.85355L10.8536 6.14645L8.85355 4.14645L8.14645 4.85355ZM10.1464 6.14645L6.14645 10.1464L6.85355 10.8536L10.8536 6.85355L10.1464 6.14645ZM6.5 10H4.5V11H6.5V10ZM5 10.5V8.5H4V10.5H5Z" fill="black"/>
</svg>

<svg viewBox="0 0 15 15" xmlns="http://www.w3.org/2000/svg"><path d="M4.5 8.5l-.36-.36 -.15.14v.2h.5Zm4-4l.35-.36c-.2-.2-.52-.2-.71 0l.35.35Zm2 2l.35.35c.19-.2.19-.52 0-.71l-.36.35Zm-4 4v.5h.2l.14-.15 -.36-.36Zm-2 0H4c0 .27.22.5.5.5v-.5Zm3 3.5C3.91 14 1 11.08 1 7.5H0C0 11.64 3.35 15 7.5 15v-1ZM14 7.5c0 3.58-2.92 6.5-6.5 6.5v1c4.14 0 7.5-3.36 7.5-7.5h-1ZM7.5 1C11.08 1 14 3.91 14 7.5h1C15 3.35 11.64 0 7.5 0v1Zm0-1C3.35 0 0 3.35 0 7.5h1C1 3.91 3.91 1 7.5 1V0ZM4.85 8.85l4-4 -.71-.71 -4 4 .7.7Zm3.29-4l1.99 2 .7-.71 -2.01-2 -.71.7Zm1.99 1.29l-4 3.99 .7.7 4-4.01 -.71-.71ZM6.48 9.99h-2v1h2v-1Zm-1.5.5v-2h-1v2h1Z"/></svg>
